X: 10
T: The Bear Dance
R: polka
M: 2/4
L: 1/8
K: Emin
z/B/|: "Em" E>E B/A/B | E>E G>A |"G"B/A/B A>G| "D"A3 G/A/ |
"Em"B/A/B A/G/F| "G"G>G "D"F/E/D | "Em"E>G "Bm"F/E/D | "Em"E3 z/B/:|
|: "Em" E/F/G E/F/G | "D"F>D D2 | "Em"E/F/G E/F/G | "D"A2- AG/A/ |
"Bm"B/A/B "D"A/G/F| "G"G>G "D"F/E/D |"Em"E>G "Bm"F/E/D | [1 "Em"E3 z/B/ :|[2 "Em"E3 A/B/ ||
|:"Am"c>A "Em"B/A/G |"Am" A>B c>d |"Em"e>e d>c | "G"B>G GA/B/|
|"Am"c>A "Em"B/A/G | "Am"A>B c>d | e>g "Bm"f/e/d|"Am"eA/A/ A2- |[1 A3 A/B/ :|[2 A3 e/f/ ||
|:"Em"g>e "Bm"f/e/d | "Am"ea/a/ ae/f/| "Em"g>e "Bm"d>c|"G"B>G GA/B/|
|"Am"c>A "Em"B/A/G | "Am"A>B c>d | e>g "Bm"f/e/d|"Am"eA/A/ A2- |[1 A3 e/f/ :|[2 A3 A/B/ ||


Tune 4195	Setting 25641

